lib/flags/vu-vanuatu.svg

<svg xmlns="http://www.w3.org/2000/svg" fill="none" aria-hidden="true" viewBox="0 0 42 30"><g id="Country=VU - Vanuatu, Size=sm (36x24)" filter="url(#filter0_dd_91_23911)"><g clip-path="url(#clip0_91_23911)"><g id="flag"><mask id="mask0_91_23911" width="36" height="24" x="3" y="2" maskUnits="userSpaceOnUse" style="mask-type:alpha"><rect id="mask" width="36" height="24" x="3" y="2" fill="white"/></mask><g mask="url(#mask0_91_23911)"><g id="contents"><path id="middle" fill="#F7FCFF" fill-rule="evenodd" d="M3 2H39V26H3V2Z" clip-rule="evenodd"/><path id="top" fill="#C51918" fill-rule="evenodd" d="M3 2V10H39V2H3Z" clip-rule="evenodd"/><path id="bottom" fill="#5EAA22" fill-rule="evenodd" d="M3 18V26H39V18H3Z" clip-rule="evenodd"/><path id="triangle" fill="#272727" fill-rule="evenodd" d="M3 0L21.7533 14L3 28V0Z" clip-rule="evenodd"/><g id="Combined Shape"><mask id="path-7-outside-1_91_23911" width="40" height="38" x="1" y="-5.35498" fill="black" maskUnits="userSpaceOnUse"><rect width="40" height="38" x="1" y="-5.35498" fill="white"/><path fill-rule="evenodd" d="M3 -1.35498L22.5843 11.9999H39V15.9999H22.3156L3 28.8115V24.3402L18.75 14L3 3.53447V-1.35498Z" clip-rule="evenodd"/></mask><path fill="#FFD018" fill-rule="evenodd" d="M3 -1.35498L22.5843 11.9999H39V15.9999H22.3156L3 28.8115V24.3402L18.75 14L3 3.53447V-1.35498Z" clip-rule="evenodd"/><path fill="#272727" d="M22.5843 11.9999L21.4575 13.6523L21.9673 13.9999H22.5843V11.9999ZM3 -1.35498L4.12679 -3.00736L1 -5.13958V-1.35498H3ZM39 11.9999H41V9.99994H39V11.9999ZM39 15.9999V17.9999H41V15.9999H39ZM22.3156 15.9999V13.9999H21.7126L21.2101 14.3332L22.3156 15.9999ZM3 28.8115H1V32.538L4.10548 30.4782L3 28.8115ZM3 24.3402L1.90237 22.6683L1 23.2607V24.3402H3ZM18.75 14L19.8476 15.6719L22.3789 14.01L19.8569 12.3342L18.75 14ZM3 3.53447H1V4.60679L1.89313 5.20025L3 3.53447ZM23.7111 10.3476L4.12679 -3.00736L1.87321 0.297396L21.4575 13.6523L23.7111 10.3476ZM39 9.99994H22.5843V13.9999H39V9.99994ZM41 15.9999V11.9999H37V15.9999H41ZM22.3156 17.9999H39V13.9999H22.3156V17.9999ZM4.10548 30.4782L23.4211 17.6666L21.2101 14.3332L1.89452 27.1448L4.10548 30.4782ZM1 24.3402V28.8115H5V24.3402H1ZM17.6524 12.3281L1.90237 22.6683L4.09763 26.012L19.8476 15.6719L17.6524 12.3281ZM1.89313 5.20025L17.6431 15.6658L19.8569 12.3342L4.10687 1.86869L1.89313 5.20025ZM1 -1.35498V3.53447H5V-1.35498H1Z" mask="url(#path-7-outside-1_91_23911)"/></g><g id="mark"><path id="Path 290" fill="#FFD018" d="M8.48292 18.7682L8.48516 17.1878C10.0695 16.8771 11.1191 16.473 11.63 15.987C12.888 14.6088 12.0517 11.38 9.46718 11.4011C8.18672 11.4011 6.86261 11.9434 6.86261 13.22C6.86261 14.8054 7.22965 15.4832 8.48516 15.4832C9.73285 15.4832 10.1903 15.5425 11.0121 14.5467L11.904 14.7917C11.0233 15.8587 9.83617 16.7016 8.48292 16.7016C6.25368 16.7016 5.04053 15.2075 5.04053 13.4796C5.04053 11.3465 6.98867 9.85254 9.3376 9.85254C11.0903 9.85254 13.8624 11.7607 13.8624 13.4796C13.8624 15.1984 13.8624 15.987 12.3424 17.1878C11.7301 17.6715 10.2131 18.5353 8.48292 18.7682Z"/><path id="Combined Shape_2" fill="#FFD018" fill-rule="evenodd" d="M8.61549 11.8798C8.52967 11.8596 8.44173 11.9051 8.41907 11.9814L8.35764 12.1882C8.35456 12.1847 8.35149 12.1812 8.34841 12.1776C8.29416 12.1152 8.19323 12.1036 8.12298 12.1519C8.05273 12.2001 8.03976 12.2898 8.09402 12.3523C8.13125 12.3951 8.16798 12.4375 8.20422 12.4793L8.019 12.6313C7.95379 12.6848 7.94974 12.7752 8.00996 12.8332C8.07017 12.8912 8.17185 12.8948 8.23706 12.8412L8.40073 12.7069C8.49844 12.8204 8.59207 12.9298 8.68154 13.0348L8.37346 13.1818C8.29526 13.2191 8.2659 13.3057 8.30788 13.3753C8.34986 13.4448 8.4473 13.4709 8.5255 13.4336L8.87735 13.2656C8.96178 13.3656 9.04183 13.461 9.11741 13.5517L8.69488 13.7533C8.61668 13.7906 8.58732 13.8772 8.6293 13.9467C8.67128 14.0162 8.76871 14.0423 8.84692 14.005L9.30991 13.7841C9.43304 13.9338 9.54098 14.0673 9.63314 14.1837L9.33772 14.3247C9.25952 14.362 9.23015 14.4486 9.27214 14.5181C9.31412 14.5877 9.41155 14.6138 9.48975 14.5764L9.81672 14.4204C9.95271 14.6005 10.0231 14.7086 10.0231 14.737C10.0231 14.8159 10.0951 14.8799 10.1838 14.8799C10.2726 14.8799 10.3445 14.8159 10.3445 14.737C10.3445 14.6647 10.2599 14.5126 10.0831 14.2689C10.0856 14.2649 10.088 14.2609 10.0901 14.2567L10.3279 13.7913C10.3646 13.7194 10.3289 13.6347 10.2481 13.6021C10.1672 13.5695 10.072 13.6013 10.0353 13.6731L9.8728 13.9911C9.77131 13.8612 9.65283 13.7142 9.5168 13.5492L9.68509 13.2199C9.72179 13.148 9.68603 13.0633 9.60521 13.0307C9.5244 12.9981 9.42913 13.0299 9.39243 13.1017L9.29809 13.2863C9.2461 13.2243 9.19206 13.1603 9.13597 13.094L9.36367 12.6484C9.40037 12.5765 9.36461 12.4919 9.2838 12.4592C9.20298 12.4266 9.10771 12.4584 9.07101 12.5302L8.91537 12.8348C8.81735 12.7202 8.71399 12.6 8.60519 12.474L8.72985 12.0544C8.75251 11.9781 8.70131 11.8999 8.61549 11.8798Z" clip-rule="evenodd"/><path id="Combined Shape_3" fill="#FFD018" fill-rule="evenodd" d="M9.69606 11.8798C9.78188 11.8596 9.86982 11.9051 9.89248 11.9814L9.95392 12.1882C9.95699 12.1847 9.96006 12.1812 9.96314 12.1776C10.0174 12.1152 10.1183 12.1036 10.1886 12.1519C10.2588 12.2001 10.2718 12.2898 10.2175 12.3523C10.1803 12.3951 10.1436 12.4375 10.1073 12.4793L10.2926 12.6313C10.3578 12.6848 10.3618 12.7752 10.3016 12.8332C10.2414 12.8912 10.1397 12.8948 10.0745 12.8412L9.91083 12.7069C9.81312 12.8204 9.71948 12.9298 9.63002 13.0348L9.93809 13.1818C10.0163 13.2191 10.0457 13.3057 10.0037 13.3753C9.96169 13.4448 9.86426 13.4709 9.78606 13.4336L9.4342 13.2656C9.34977 13.3656 9.26972 13.461 9.19414 13.5517L9.61667 13.7533C9.69488 13.7906 9.72424 13.8772 9.68225 13.9467C9.64027 14.0162 9.54284 14.0423 9.46464 14.005L9.00165 13.7841C8.87852 13.9338 8.77058 14.0673 8.67841 14.1837L8.97384 14.3247C9.05204 14.362 9.0814 14.4486 9.03942 14.5181C8.99743 14.5877 8.9 14.6138 8.8218 14.5764L8.49483 14.4204C8.35885 14.6005 8.28844 14.7086 8.28844 14.737C8.28844 14.8159 8.21649 14.8799 8.12773 14.8799C8.03897 14.8799 7.96701 14.8159 7.96701 14.737C7.96701 14.6647 8.05164 14.5126 8.22848 14.2689C8.22593 14.2649 8.22358 14.2609 8.22145 14.2567L7.98363 13.7913C7.94693 13.7194 7.98269 13.6347 8.0635 13.6021C8.14432 13.5695 8.23959 13.6013 8.27629 13.6731L8.43875 13.9911C8.54025 13.8612 8.65872 13.7142 8.79475 13.5492L8.62647 13.2199C8.58976 13.148 8.62552 13.0633 8.70634 13.0307C8.78715 12.9981 8.88242 13.0299 8.91913 13.1017L9.01346 13.2863C9.06546 13.2243 9.11949 13.1603 9.17558 13.094L8.94789 12.6484C8.91118 12.5765 8.94694 12.4919 9.02776 12.4592C9.10857 12.4266 9.20384 12.4584 9.24055 12.5302L9.39618 12.8348C9.4942 12.7202 9.59757 12.6 9.70637 12.474L9.58171 12.0544C9.55905 11.9781 9.61024 11.8999 9.69606 11.8798Z" clip-rule="evenodd"/></g></g></g></g></g></g><defs><filter id="filter0_dd_91_23911" width="42" height="30" x="0" y="0" color-interpolation-filters="sRGB" filterUnits="userSpaceOnUse"><feFlood flood-opacity="0" result="BackgroundImageFix"/><feColorMatrix in="SourceAlpha" result="hardAlpha" values="0 0 0 0 0 0 0 0 0 0 0 0 0 0 0 0 0 0 127 0"/><feOffset dy="1"/><feGaussianBlur stdDeviation="1"/><feColorMatrix values="0 0 0 0 0.0627451 0 0 0 0 0.0941176 0 0 0 0 0.156863 0 0 0 0.06 0"/><feBlend in2="BackgroundImageFix" result="effect1_dropShadow_91_23911"/><feColorMatrix in="SourceAlpha" result="hardAlpha" values="0 0 0 0 0 0 0 0 0 0 0 0 0 0 0 0 0 0 127 0"/><feOffset dy="1"/><feGaussianBlur stdDeviation="1.5"/><feColorMatrix values="0 0 0 0 0.0627451 0 0 0 0 0.0941176 0 0 0 0 0.156863 0 0 0 0.1 0"/><feBlend in2="effect1_dropShadow_91_23911" result="effect2_dropShadow_91_23911"/><feBlend in="SourceGraphic" in2="effect2_dropShadow_91_23911" result="shape"/></filter><clipPath id="clip0_91_23911"><rect width="36" height="24" x="3" y="2" fill="white" rx="2"/></clipPath></defs></svg>

<svg xmlns="http://www.w3.org/2000/svg" fill="none" aria-hidden="true" viewBox="0 0 42 30"><g filter="url(#a)"><g clip-path="url(#b)"><mask id="c" width="36" height="24" x="3" y="2" maskUnits="userSpaceOnUse" style="mask-type:alpha"><path fill="#fff" d="M3 2h36v24H3z"/></mask><g mask="url(#c)"><path fill="#F7FCFF" fill-rule="evenodd" d="M3 2h36v24H3V2Z" clip-rule="evenodd"/><path fill="#C51918" fill-rule="evenodd" d="M3 2v8h36V2H3Z" clip-rule="evenodd"/><path fill="#5EAA22" fill-rule="evenodd" d="M3 18v8h36v-8H3Z" clip-rule="evenodd"/><path fill="#272727" fill-rule="evenodd" d="m3 0 18.753 14L3 28V0Z" clip-rule="evenodd"/><mask id="d" width="40" height="38" x="1" y="-5.355" fill="#000" maskUnits="userSpaceOnUse"><path fill="#fff" d="M1-5.355h40v38H1z"/><path fill-rule="evenodd" d="M3-1.355 22.584 12H39v4H22.316L3 28.81v-4.47L18.75 14 3 3.534v-4.889Z" clip-rule="evenodd"/></mask><path fill="#FFD018" fill-rule="evenodd" d="M3-1.355 22.584 12H39v4H22.316L3 28.81v-4.47L18.75 14 3 3.534v-4.889Z" clip-rule="evenodd"/><path fill="#272727" d="m22.584 12-1.127 1.652.51.348h.617v-2ZM3-1.355l1.127-1.652L1-5.14v3.785h2ZM39 12h2v-2h-2v2Zm0 4v2h2v-2h-2Zm-16.684 0v-2h-.603l-.503.333L22.316 16ZM3 28.81H1v3.727l3.105-2.06L3 28.811Zm0-4.47-1.098-1.673L1 23.26v1.08h2ZM18.75 14l1.098 1.672 2.53-1.662-2.521-1.676L18.75 14ZM3 3.534H1v1.073l.893.593L3 3.534Zm20.711 6.814L4.127-3.007 1.873.297l19.584 13.355 2.254-3.304ZM39 10H22.584v4H39v-4Zm2 6v-4h-4v4h4Zm-18.684 2H39v-4H22.316v4ZM4.106 30.478 23.42 17.667l-2.21-3.334L1.894 27.145l2.21 3.333ZM1 24.34v4.471h4v-4.47H1Zm16.652-12.012-15.75 10.34 2.196 3.344 15.75-10.34-2.196-3.344ZM1.893 5.2l15.75 10.466 2.214-3.332L4.107 1.87 1.893 5.2ZM1-1.355v4.89h4v-4.89H1Z" mask="url(#d)"/><g fill="#FFD018"><path d="m8.483 18.768.002-1.58c1.585-.31 2.634-.715 3.145-1.201 1.258-1.378.422-4.607-2.163-4.586-1.28 0-2.604.542-2.604 1.819 0 1.585.367 2.263 1.622 2.263 1.248 0 1.705.06 2.527-.936l.892.245c-.88 1.067-2.068 1.91-3.421 1.91-2.23 0-3.442-1.495-3.442-3.222 0-2.133 1.948-3.627 4.297-3.627 1.752 0 4.524 1.908 4.524 3.627 0 1.718 0 2.507-1.52 3.708-.612.484-2.129 1.347-3.86 1.58Z"/><path fill-rule="evenodd" d="M8.615 11.88c-.085-.02-.173.025-.196.101l-.061.207a.174.174 0 0 0-.235-.036c-.07.048-.083.138-.029.2l.11.127-.185.152a.132.132 0 0 0-.009.202c.06.058.162.062.227.008l.164-.134.28.328-.308.147c-.078.037-.107.124-.065.193.042.07.14.096.217.059l.352-.168c.085.1.165.195.24.286l-.422.201c-.078.038-.108.124-.066.194.042.07.14.095.218.058l.463-.22c.123.149.231.282.323.399l-.295.14c-.078.038-.108.125-.066.194.042.07.14.096.218.058l.327-.156c.136.18.206.289.206.317 0 .079.072.143.16.143.09 0 .162-.064.162-.143 0-.072-.085-.224-.262-.468a.148.148 0 0 0 .007-.012l.238-.466c.037-.072 0-.156-.08-.189s-.176 0-.213.071l-.162.318c-.102-.13-.22-.277-.356-.442l.168-.33c.037-.071.001-.156-.08-.188-.08-.033-.176-.001-.213.07l-.094.185a58.066 58.066 0 0 0-.162-.192l.228-.446c.036-.072 0-.156-.08-.189-.081-.032-.176 0-.213.071l-.156.305-.31-.361.125-.42c.023-.076-.029-.154-.115-.174Z" clip-rule="evenodd"/><path fill-rule="evenodd" d="M9.696 11.88c.086-.02.174.025.196.101l.062.207.01-.01a.174.174 0 0 1 .225-.026c.07.048.083.138.028.2l-.11.127.186.152a.132.132 0 0 1 .009.202.175.175 0 0 1-.227.008l-.164-.134-.281.328.308.147c.078.037.108.124.066.193-.042.07-.14.096-.218.059l-.352-.168-.24.286.423.201c.078.038.107.124.065.194-.042.07-.14.095-.217.058l-.463-.22c-.123.149-.231.282-.324.399l.296.14c.078.038.107.125.065.194-.042.07-.139.096-.217.058l-.327-.156c-.136.18-.207.289-.207.317 0 .079-.072.143-.16.143-.089 0-.161-.064-.161-.143 0-.072.085-.224.261-.468a.143.143 0 0 1-.007-.012l-.237-.466c-.037-.072-.001-.156.08-.189.08-.033.176 0 .212.071l.163.318c.101-.13.22-.277.356-.442l-.169-.33c-.036-.071 0-.156.08-.188.081-.033.176-.001.213.07l.094.185.163-.192-.228-.446c-.037-.072-.001-.156.08-.189.08-.032.176 0 .213.071l.155.305.31-.361-.124-.42c-.023-.076.028-.154.114-.174Z" clip-rule="evenodd"/></g></g></g></g><defs><clipPath id="b"><rect width="36" height="24" x="3" y="2" fill="#fff" rx="2"/></clipPath><filter id="a" width="42" height="30" x="0" y="0" color-interpolation-filters="sRGB" filterUnits="userSpaceOnUse"><feFlood flood-opacity="0" result="BackgroundImageFix"/><feColorMatrix in="SourceAlpha" result="hardAlpha" values="0 0 0 0 0 0 0 0 0 0 0 0 0 0 0 0 0 0 127 0"/><feOffset dy="1"/><feGaussianBlur stdDeviation="1"/><feColorMatrix values="0 0 0 0 0.0627451 0 0 0 0 0.0941176 0 0 0 0 0.156863 0 0 0 0.06 0"/><feBlend in2="BackgroundImageFix" result="effect1_dropShadow_91_23911"/><feColorMatrix in="SourceAlpha" result="hardAlpha" values="0 0 0 0 0 0 0 0 0 0 0 0 0 0 0 0 0 0 127 0"/><feOffset dy="1"/><feGaussianBlur stdDeviation="1.5"/><feColorMatrix values="0 0 0 0 0.0627451 0 0 0 0 0.0941176 0 0 0 0 0.156863 0 0 0 0.1 0"/><feBlend in2="effect1_dropShadow_91_23911" result="effect2_dropShadow_91_23911"/><feBlend in="SourceGraphic" in2="effect2_dropShadow_91_23911" result="shape"/></filter></defs></svg>
